packages/icons/src/components/Logo/assets/light/oracle-linux.svg

<svg width="20" height="20" viewBox="0 0 20 20" fill="none" xmlns="http://www.w3.org/2000/svg">
<g>
<path d="M8.31569 10.6265H9.5973L8.91963 9.54546L7.67588 11.5H7.10982L8.62264 9.15218C8.68842 9.05731 8.79804 9 8.91963 9C9.03722 9 9.14684 9.05534 9.21063 9.14822L10.7294 11.5H10.1634L9.89628 11.0632H8.59872L8.31569 10.6265ZM14.1956 11.0632V9.02372H13.7152V11.2628C13.7152 11.3241 13.7391 11.3834 13.785 11.4289C13.8308 11.4743 13.8926 11.5 13.9604 11.5H16.1509L16.4339 11.0632H14.1956ZM6.24877 10.6976C6.71518 10.6976 7.09388 10.3241 7.09388 9.86166C7.09388 9.39921 6.71518 9.02372 6.24877 9.02372H4.14736V11.5H4.62753V9.46047H6.21688C6.44012 9.46047 6.6195 9.64031 6.6195 9.86166C6.6195 10.083 6.44012 10.2628 6.21688 10.2628L4.86272 10.2609L6.2966 11.5H6.99422L6.02953 10.6976L6.24877 10.6976ZM1.1915 11.5C0.502048 11.5 -0.0574341 10.9466 -0.0574341 10.2628C-0.0574341 9.57905 0.502055 9.02372 1.1915 9.02372H2.64312C3.33276 9.02372 3.89184 9.57905 3.89184 10.2628C3.89184 10.9466 3.33276 11.5 2.64312 11.5H1.1915ZM2.61083 11.0632C3.05751 11.0632 3.41927 10.7055 3.41927 10.2628C3.41927 9.82016 3.05751 9.46047 2.61083 9.46047H1.22358C0.777113 9.46047 0.415143 9.82016 0.415143 10.2628C0.415143 10.7055 0.777113 11.0632 1.22358 11.0632H2.61083ZM11.732 11.5C11.0424 11.5 10.4823 10.9466 10.4823 10.2628C10.4823 9.57905 11.0424 9.02372 11.732 9.02372H13.4561L13.175 9.46047H11.7639C11.3174 9.46047 10.9547 9.82016 10.9547 10.2628C10.9547 10.7055 11.3174 11.0632 11.7639 11.0632H13.4959L13.2129 11.5H11.732ZM17.6059 11.0632C17.2371 11.0632 16.9242 10.8182 16.8285 10.4802H18.8815L19.1645 10.0435H16.8285C16.9242 9.70751 17.2371 9.46047 17.6059 9.46047H19.015L19.3001 9.02372H17.574C16.8843 9.02372 16.3243 9.57905 16.3243 10.2628C16.3243 10.9466 16.8843 11.5 17.574 11.5H19.0549L19.3379 11.0632H17.6059M19.5572 9.28656C19.5571 9.25799 19.5627 9.22968 19.5737 9.20327C19.5847 9.17686 19.6008 9.15286 19.6212 9.13266C19.6416 9.11245 19.6658 9.09644 19.6924 9.08555C19.7191 9.07465 19.7476 9.06909 19.7764 9.06917C19.9 9.06917 19.9977 9.16601 19.9977 9.28656C19.9977 9.40909 19.9 9.50593 19.7764 9.50593C19.6548 9.50593 19.5572 9.40909 19.5572 9.28656V9.28656ZM19.7764 9.56719C19.9319 9.56719 20.0575 9.44269 20.0575 9.28854C20.0575 9.13439 19.9319 9.00988 19.7764 9.00988C19.623 9.00988 19.4974 9.13439 19.4974 9.28854C19.4974 9.44269 19.623 9.56719 19.7764 9.56719ZM19.7505 9.12253C19.7944 9.12253 19.8123 9.12451 19.8323 9.13241C19.8881 9.1502 19.894 9.1996 19.894 9.21937C19.894 9.22332 19.894 9.2332 19.89 9.24506C19.8881 9.25692 19.8801 9.28063 19.8522 9.29842C19.8482 9.30039 19.8462 9.30237 19.8382 9.30632L19.91 9.43478H19.8402L19.7764 9.31621H19.7326V9.43478H19.6708V9.12253H19.7505ZM19.7725 9.26482C19.7924 9.26285 19.8123 9.26285 19.8243 9.24506C19.8302 9.23715 19.8323 9.22925 19.8323 9.21739C19.8323 9.20158 19.8223 9.18775 19.8083 9.17984C19.7944 9.17391 19.7804 9.17391 19.7505 9.17391H19.7326V9.26482H19.7725" fill="#F80000"/>
</g>
<defs>
<clipPath id="clip0_341_657">
<rect width="20" height="20" fill="white"/>
</clipPath>
</defs>
</svg>

<svg xmlns="http://www.w3.org/2000/svg" width="20" height="20" fill="none" viewBox="0 0 20 20">
    <path fill="#f80000" d="M8.316 10.627h1.281L8.92 9.545 7.676 11.5H7.11l1.513-2.348A.36.36 0 0 1 8.92 9a.35.35 0 0 1 .29.148l1.52 2.352h-.567l-.267-.437H8.6zm5.88.436v-2.04h-.48v2.24c0 .061.023.12.069.166a.25.25 0 0 0 .175.071h2.19l.284-.437zm-7.947-.365a.84.84 0 0 0 .845-.836.84.84 0 0 0-.845-.838H4.147V11.5h.48V9.46h1.59a.401.401 0 1 1 0 .803l-1.354-.002L6.297 11.5h.697l-.964-.802zm-5.057.802c-.69 0-1.25-.553-1.25-1.237s.56-1.24 1.25-1.24h1.451c.69 0 1.249.556 1.249 1.24S3.332 11.5 2.643 11.5zm1.419-.437a.804.804 0 0 0 .808-.8.806.806 0 0 0-.808-.803H1.224a.806.806 0 0 0-.809.803c0 .443.362.8.809.8zm9.121.437c-.69 0-1.25-.553-1.25-1.237s.56-1.24 1.25-1.24h1.724l-.281.437h-1.411c-.447 0-.81.36-.81.803s.363.8.81.8h1.732l-.283.437zm5.874-.437a.806.806 0 0 1-.778-.583h2.053l.284-.437h-2.337a.81.81 0 0 1 .778-.583h1.409l.285-.436h-1.726c-.69 0-1.25.555-1.25 1.239s.56 1.237 1.25 1.237h1.48l.284-.437zm1.951-1.776a.215.215 0 0 1 .135-.201.2.2 0 0 1 .084-.017.218.218 0 1 1 0 .437.22.22 0 0 1-.219-.22m.22.28a.28.28 0 0 0 .28-.278.28.28 0 0 0-.56 0 .28.28 0 0 0 .28.278m-.027-.444c.044 0 .062.002.082.01a.086.086 0 0 1 .062.086q.001.007-.004.026a.08.08 0 0 1-.038.053l-.014.008.072.129h-.07l-.064-.119h-.043v.119h-.062v-.312zm.023.142c.02-.002.04-.002.051-.02a.04.04 0 0 0 .008-.028q-.002-.025-.024-.037c-.014-.006-.028-.006-.058-.006h-.017v.09z"/>
</svg>
